Numix-GalliumOS/64/mimetypes/application-rtf.svg

<svg xmlns="http://www.w3.org/2000/svg" xmlns:xlink="http://www.w3.org/1999/xlink" width="64px" height="64px" viewBox="0 0 64 64" version="1.1">
<g id="surface1">
<path style=" stroke:none;fill-rule:nonzero;fill:rgb(20.392157%,40.784314%,80.784314%);fill-opacity:1;" d="M 10.671875 0 C 9.296875 0 8 1.355469 8 2.789062 L 8 61.210938 C 8 62.566406 9.375 64 10.671875 64 L 53.328125 64 C 54.625 64 56 62.566406 56 61.210938 L 56 18 L 38 0 Z M 10.671875 0 "/>
<path style=" stroke:none;fill-rule:nonzero;fill:rgb(0%,0%,0%);fill-opacity:0.196078;" d="M 42 18 L 56 32 L 56 18 Z M 42 18 "/>
<path style=" stroke:none;fill-rule:nonzero;fill:rgb(100%,100%,100%);fill-opacity:0.392157;" d="M 38 0 L 55.984375 18 L 40.757812 18 C 39.410156 18 38 16.574219 38 15.226562 Z M 38 0 "/>
<path style=" stroke:none;fill-rule:evenodd;fill:rgb(97.647059%,97.647059%,97.647059%);fill-opacity:1;" d="M 20 22 L 32 22 L 32 32 L 20 32 Z M 20 22 "/>
<path style=" stroke:none;fill-rule:evenodd;fill:rgb(97.647059%,97.647059%,97.647059%);fill-opacity:1;" d="M 34 22 L 44 22 L 44 24 L 34 24 Z M 34 22 "/>
<path style=" stroke:none;fill-rule:nonzero;fill:rgb(0%,0%,0%);fill-opacity:0.196078;" d="M 8 48 L 8 61.335938 C 8 62.632812 9.375 64 10.664062 64 L 53.335938 64 C 54.625 64 56 62.632812 56 61.335938 L 56 48 Z M 8 48 "/>
<path style=" stroke:none;fill-rule:evenodd;fill:rgb(97.647059%,97.647059%,97.647059%);fill-opacity:1;" d="M 34 26 L 44 26 L 44 28 L 34 28 Z M 34 26 "/>
<path style=" stroke:none;fill-rule:nonzero;fill:rgb(100%,100%,100%);fill-opacity:1;" d="M 21.230469 50.804688 C 21.945312 50.804688 22.585938 50.871094 23.167969 51.019531 C 23.742188 51.15625 24.242188 51.378906 24.660156 51.683594 C 25.078125 51.976562 25.390625 52.355469 25.601562 52.824219 C 25.832031 53.273438 25.949219 53.816406 25.949219 54.429688 C 25.949219 55.078125 25.800781 55.660156 25.503906 56.183594 C 25.210938 56.710938 24.71875 57.113281 24.035156 57.382812 C 24.265625 57.695312 24.503906 58.039062 24.757812 58.425781 C 25.011719 58.792969 25.265625 59.1875 25.503906 59.605469 C 25.75 60.007812 25.980469 60.417969 26.191406 60.835938 C 26.421875 61.246094 26.613281 61.632812 26.777344 62 L 24.175781 62 C 23.863281 61.285156 23.503906 60.597656 23.085938 59.941406 C 22.683594 59.277344 22.25 58.605469 21.773438 57.925781 L 20.484375 57.925781 L 20.484375 62 L 18 62 L 18 51.09375 C 18.246094 51.042969 18.507812 51 18.789062 50.960938 C 19.082031 50.910156 19.378906 50.886719 19.671875 50.871094 C 19.976562 50.847656 20.253906 50.828125 20.527344 50.820312 C 20.796875 50.804688 21.027344 50.804688 21.230469 50.804688 M 23.429688 54.414062 C 23.429688 53.832031 23.222656 53.40625 22.824219 53.125 C 22.421875 52.855469 21.886719 52.714844 21.230469 52.714844 C 21.132812 52.714844 21.019531 52.722656 20.886719 52.730469 C 20.753906 52.730469 20.617188 52.75 20.484375 52.773438 L 20.484375 56.09375 L 21.027344 56.09375 C 21.871094 56.09375 22.484375 55.957031 22.863281 55.667969 C 23.242188 55.375 23.429688 54.953125 23.429688 54.414062 "/>
<path style=" stroke:none;fill-rule:nonzero;fill:rgb(100%,100%,100%);fill-opacity:1;" d="M 36.578125 50.929688 L 36.578125 52.75 L 33.289062 52.75 L 33.289062 62 L 30.785156 62 L 30.785156 52.75 L 27.503906 52.75 L 27.503906 50.929688 L 36.578125 50.929688 "/>
<path style=" stroke:none;fill-rule:nonzero;fill:rgb(100%,100%,100%);fill-opacity:1;" d="M 38.355469 62 L 38.355469 50.929688 L 46 50.929688 L 46 52.75 L 40.832031 52.75 L 40.832031 55.4375 L 45.351562 55.4375 L 45.351562 57.257812 L 40.832031 57.257812 L 40.832031 62 L 38.355469 62 "/>
<path style=" stroke:none;fill-rule:evenodd;fill:rgb(97.647059%,97.647059%,97.647059%);fill-opacity:1;" d="M 34 30 L 44 30 L 44 32 L 34 32 Z M 34 30 "/>
<path style=" stroke:none;fill-rule:evenodd;fill:rgb(97.647059%,97.647059%,97.647059%);fill-opacity:1;" d="M 20 34 L 44 34 L 44 36 L 20 36 Z M 20 34 "/>
<path style=" stroke:none;fill-rule:evenodd;fill:rgb(97.647059%,97.647059%,97.647059%);fill-opacity:1;" d="M 20 38 L 44 38 L 44 40 L 20 40 Z M 20 38 "/>
<path style=" stroke:none;fill-rule:evenodd;fill:rgb(97.647059%,97.647059%,97.647059%);fill-opacity:1;" d="M 20 42 L 44 42 L 44 44 L 20 44 Z M 20 42 "/>
</g>
</svg>

<svg xmlns="http://www.w3.org/2000/svg" viewBox="0 0 64 64">
 <g>
  <path d="m 10.672 0 c -1.375 0 -2.672 1.355 -2.672 2.789 l 0 58.42 c 0 1.355 1.375 2.789 2.672 2.789 l 42.656 0 c 1.297 0 2.672 -1.434 2.672 -2.789 l 0 -43.21 l -18 -18 m -27.328 0" style="fill:#3468ce;fill-opacity:1;stroke:none;fill-rule:nonzero"/>
  <path d="m 42 18 l 14 14 l 0 -14 m -14 0" style="fill:#000;fill-opacity:0.196;stroke:none;fill-rule:nonzero"/>
  <path d="m 38 0 l 17.984 18 l -15.227 0 c -1.348 0 -2.758 -1.426 -2.758 -2.773 m 0 -15.227" style="fill:#fff;fill-opacity:0.392;stroke:none;fill-rule:nonzero"/>
  <path d="m 20 22 l 12 0 l 0 10 l -12 0 m 0 -10" style="fill:#f9f9f9;fill-opacity:1;stroke:none;fill-rule:evenodd"/>
  <path d="m 34 22 l 10 0 l 0 2 l -10 0 m 0 -2" style="fill:#f9f9f9;fill-opacity:1;stroke:none;fill-rule:evenodd"/>
  <path d="m 8 48 l 0 13.336 c 0 1.297 1.375 2.664 2.664 2.664 l 42.672 0 c 1.289 0 2.664 -1.367 2.664 -2.664 l 0 -13.336 m -48 0" style="fill:#000;fill-opacity:0.196;stroke:none;fill-rule:nonzero"/>
  <path d="m 34 26 l 10 0 l 0 2 l -10 0 m 0 -2" style="fill:#f9f9f9;fill-opacity:1;stroke:none;fill-rule:evenodd"/>
  <path d="m 21.23 50.805 c 0.715 0 1.355 0.066 1.938 0.215 c 0.574 0.137 1.074 0.359 1.492 0.664 c 0.418 0.293 0.73 0.672 0.941 1.141 c 0.23 0.449 0.348 0.992 0.348 1.605 c 0 0.648 -0.148 1.23 -0.445 1.754 c -0.293 0.527 -0.785 0.93 -1.469 1.199 c 0.23 0.313 0.469 0.656 0.723 1.043 c 0.254 0.367 0.508 0.762 0.746 1.18 c 0.246 0.402 0.477 0.813 0.688 1.23 c 0.23 0.41 0.422 0.797 0.586 1.164 l -2.602 0 c -0.313 -0.715 -0.672 -1.402 -1.09 -2.059 c -0.402 -0.664 -0.836 -1.336 -1.313 -2.02 l -1.289 0 l 0 4.074 l -2.484 0 l 0 -10.906 c 0.246 -0.051 0.508 -0.094 0.789 -0.133 c 0.293 -0.051 0.59 -0.074 0.883 -0.09 c 0.305 -0.023 0.582 -0.043 0.855 -0.051 c 0.27 -0.016 0.5 -0.016 0.703 -0.016 m 2.199 3.609 c 0 -0.582 -0.207 -1.01 -0.605 -1.289 c -0.402 -0.27 -0.938 -0.41 -1.594 -0.41 c -0.098 0 -0.211 0.008 -0.344 0.016 c -0.133 0 -0.27 0.02 -0.402 0.043 l 0 3.32 l 0.543 0 c 0.844 0 1.457 -0.137 1.836 -0.426 c 0.379 -0.293 0.566 -0.715 0.566 -1.254" style="fill:#fff;fill-opacity:1;stroke:none;fill-rule:nonzero"/>
  <path d="m 36.578 50.93 l 0 1.82 l -3.289 0 l 0 9.25 l -2.504 0 l 0 -9.25 l -3.281 0 l 0 -1.82 l 9.07 0" style="fill:#fff;fill-opacity:1;stroke:none;fill-rule:nonzero"/>
  <path d="m 38.36 62 l 0 -11.07 l 7.645 0 l 0 1.82 l -5.168 0 l 0 2.688 l 4.52 0 l 0 1.82 l -4.52 0 l 0 4.742 l -2.477 0" style="fill:#fff;fill-opacity:1;stroke:none;fill-rule:nonzero"/>
  <path d="m 34 30 l 10 0 l 0 2 l -10 0 m 0 -2" style="fill:#f9f9f9;fill-opacity:1;stroke:none;fill-rule:evenodd"/>
  <path d="m 20 34 l 24 0 l 0 2 l -24 0 m 0 -2" style="fill:#f9f9f9;fill-opacity:1;stroke:none;fill-rule:evenodd"/>
  <path d="m 20 38 l 24 0 l 0 2 l -24 0 m 0 -2" style="fill:#f9f9f9;fill-opacity:1;stroke:none;fill-rule:evenodd"/>
  <path d="m 20 42 l 24 0 l 0 2 l -24 0 m 0 -2" style="fill:#f9f9f9;fill-opacity:1;stroke:none;fill-rule:evenodd"/>
 </g>
</svg>
